FINK
CUT[ICH WEISS ZWEI HOHE MAUERN]
REG[Europa, Mitteleuropa, Deutschland]
KEY[F0395  16 Bb 2/4]
MEL[-5_  1_1_1-7-6-7  1__2_
    2_  3_1_-6_2_  1__-7_
    -5_  1_1_1-7-6-7  1__2_
    2_  3531-721-6  -6__-5_
    -5_  4_.32_2_  3_.21_
    3_  54324321  3_3_2_
    -5_  1_1_-6-71-6  -5_.-4-3_
    -5_  -6432211-7  -7__1_ //] >>
FCT[Vaterlands -, Heimat - Lied, nationalistisch]
